X:1
T:Title
%%score { ( 1 4 5 ) | ( 2 3 ) }
L:1/8
M:6/8
K:G
V:1 treble nm="Grand Piano"
V:4 treble 
V:5 treble 
V:2 treble 
V:3 treble 
V:1
 z3 z2[Q:1/4=92] D | B2 B BAB | G2 E D2 G | [FA]2 [FA] .[FA]2 [DFA] |[M:5/8] [DAc]2 B B2 | %5
[M:1/8] B/c/ |[M:3/4] d2 dd ed | [Ed]2 [Ec] [EB]2 [EA] | G2 GF G[CDA] | [B,DG]6 | B3 B3 | B4 z2 | %12
 d2 d d2 e | d6 | B3 B3 | B4 z2 | A2 z2 z2 | A6 | d2 dd ed | [Ed]2 [Ec] [EB]2 [EA] | G2 GF G[CDA] | %21
[M:5/8] [B,DG]-[B,DG]- [B,DG]3 |] %22
V:2
 z3 z2 [G,B,] | z3 .D3 | [G,B,D]2 [G,C] [G,B,]2 [G,B,D] | [D,D]2 [D,D] z[K:treble] dD, | %4
[M:5/8] G,2 [G,DG] [G,DG]2 |[M:1/8] [G,G] |[M:3/4] z2 z .[G,G]3 | [C,C]2 [C,G,] [C,G,]2 [C,C] | %8
 z2 z A, z2 | G,,6 | [G,DG]2 [G,D] [G,DG]2 [G,D] | [G,DG]2 [G,D] [G,D]3 | [G,B,G]3 [G,G]2- [G,CG] | %13
 [G,B,G]2 [G,B,] .[G,B,]3 | [G,DG]2 [G,D] [G,DG]2 [G,D] | [G,DG]2[K:bass] [G,D] [G,D]3 | %16
 z2 .A2 z[K:treble] B | z2 z2 z[K:treble] .D | z2 z .[G,G]3 | [C,C]2 [C,G,] [C,G,]2 [C,C] | %20
 z2 z A, z2 |[M:5/8] G,,-G,,- G,,3 |] %22
V:3
 x6 | [G,DG]2 [G,DG] [G,G]-[G,CG][G,DG] | x6 | z3 .[D,D]3[K:treble] |[M:5/8] x5 |[M:1/8] z/ A,/ | %6
[M:3/4] [G,B,G]2 [G,B,G]B, C[G,B,=F] | x6 | [D,B,D]2 [D,B,D][D,D]- [D,B,D]D, | x6 | x6 | x6 | %12
 z2 z .B,3 | x6 | x6 | x2[K:bass] x4 | D,3 D,3[K:treble] | %17
 [D,D]2 [D,D] [D,D]2[K:treble] [G,G]/-[G,CG]/ | [G,B,G]2 [G,B,G]B, C[G,B,=F] | x6 | %20
 [D,B,D]2 [D,B,D][D,D]- [D,B,D]D, |[M:5/8] x5 |] %22
V:4
 x6 | x6 | x6 | x6 |[M:5/8] x5 |[M:1/8] x |[M:3/4] x6 | x6 | x6 | x6 | z2 .G2 z G | z2 .G2 AG | %12
 x6 | z2 G .G3 | z2 .G2 z G | z2 .G2 AG | [DF]3 .[DFA]3 | F2 F F2 B/c/ | x6 | x6 | x6 | %21
[M:5/8] x5 |] %22
V:5
 x6 | x6 | x6 | x6 |[M:5/8] x5 |[M:1/8] x |[M:3/4] x6 | x6 | x6 | x6 | x6 | z2 z .G3 | x6 | x6 | %14
 x6 | z2 z .G3 | x6 | x6 | x6 | x6 | x6 |[M:5/8] x5 |] %22

